!!!COM: Franz Schubert
!!!CNT: Deutsch
!!!TXO: Deutsch
!!!OTL: Erlko2nig
!!!LYR: Johann Wolfgang von Goethe
!!!OPR:
!!!OPS: Op. 1
!!!ONM: No.
!!!ENC: Ben Fuhrman
!!!YOR: Schubert Lieder - Dietrich Fischer-Dieskau, and Elmar Budde, eds.
!!!YOR: New York: C. F. Peters, Vol. 2
!!!ODT: 1815/
!!NB: Only vocal melody encoded.
!!NB: First instance of melodic material only encoded.
!!NB: Original Key: G minor
**kern
*clef G2
*k[b-e-a-d-]
*M4/4
!!created: 07/31/06 8:20
!!proofed and posted: 07/31/06 8:20
!!edit time: 50 minutes
=15
2r
4r
{4g
=16
2a-
4g-
4f
=17
2.g
4g
=18
2a-
2f
=19
2cc}
2r
=20
2r
4r
{4cc
=21
2.cc
4ff
=22
2ff
4dd-
4b-
=23
2.ee-
4g
=24
2a-}
4r
{4a-
=25
2.dd-
4g
=26
qb-
2a-
2a-
=27
2dd-
4.g
8g
=28
qb-
2a-}
4r
{4a-
=29
2.cc
4g
=30
qb-
4a-
4a-}
4r
{4f
=31
2g
2en
=32
2f}
2r
!! rest to measure 36
=36
2r
4r
{4c
=37
2f
4r
4c
=38
2f
4.g
8g
=39
2a-
4.an
8an
=40
2b-}
2r
=41
2r
4r
{4b-
=42
2.cc
4f
=43
2.dd-
4b-
=44
2cc
4cc
4f
=45
2dd-}
2r
=46
2r
4r
{4b-
=47
2.cc-
4a-
=48
4g
4e-}
4r
{4b-
=49
2.cc-
8b-
8a-
=50
2b-}
2r
=51
2r
4r
{4B-
=52
2.d-
4d-
=53
2.e-
4B-
=54
4.d-
8c
4c}
4r
!! rest to measure 57
=57
2r
4r
{4b-
=58
2.cc
4a-
=59
2.e-}
{4b-
=60
2.cc-
4a-
=61
2.e-}
{4b-
=62
2.cc
4cc
=63
2ee-
2b-
=64
(4b-
12an
12b-
12cc)
4b-
4dn
=65
2.e-}
{4e-
=66
2.b-
4bn
=67
2cc
4a-
8a-
8an
=68
2.b-
4e-
=69
2.cc}
{8cc
8cc
=70
4.ff
8ee-
8ee-
8dd-
8cc
8b-
=71
[2a-
8a-]
8b-
8cc
8b-
=72
2a-}
4r
{4cc
=73
2dd-
4.dd-
8dd-
=74
8dd-
8cc
4cc}
4r
{4cc
=75
2dd-
4.dd-
8dd-
=76
2cc}
4r
{4g
=77
4a-
4g
4a-
8an
8an
=78
2b-
4.bn
8bn
=79
1cc}
=80
2r
4r
{4en
=81
*k[b-e-]
4a
4a
4r
8en
8en
=82
4g
8f
8f
2f}
=83
4r
{4f
4g
4g
=84
4a
4f
4c
8d
8en
=85
2f}
2r
=86
2r
4r
{4f
=87
4f
8g
8a
4b-
8b-
8bn
=88
4cc
4f
4dd}
{8cc
8b-
=89
4a
4d
4b-
8g
8g
=90
4a
4d
4b-}
{8g
8g
=91
4g
8f#
8g
4a
8fn
8fn
=92
4g
8c
8c
4a}
8r
{8f
=93
4f
8g
8a
4b-
8cc
8dd
=94
4ee-
8cc
8a
4b-}
8r
{8f
=95
4f
8g
8a
4b-
8cc
8dd
=96
8ff
8ee-
8cc
8a
4b-}
4r
=97
2r
4r
{4dd
=98
2ee-
4.ee-
8ee-
=99
8ee-
8dd
4dd}
4r
{4dd
=100
2ee-
4.ee-
8ee-
=101
2dd}
4r
{4a
=102
4b-
4a
4b-
8bn
8bn
=103
2cc
2cc#
=104
1dd}
=105
2r
4r
{4f#
=106
2bn
4r
4f#
=107
2g
4r
4g
=108
2g
4.g
8g
=109
2.cc}
{4cc
=110
4cc
8a-
8f
4d
4a-
=111
2g
4g
4g
=112
2c}
2r
!! rest to measure 116
=116
2r
4r
{4cc
=117
4.dd-
8a-
4a-
4dd-
=118
4cc
8cc
8dd-
4ee-
8dd-
8cc
=119
2.dd-}
{4cc
=120
2bn
4bn
4bn
=121
2cc
4.cc
8f#
=122
2g
4.g
8g
=123
2c}
4r
{4ee-
=124
2ff-
4.ff-
8ff-
=125
8ff-
8ee-
4ee-
4r
4ee-
=126
2ff-
4.ff-
8ff-
=127
2ee-}
2r
=128
{2ee-
4.een
8een
=129
2ff
4.dd-
8dd-
=130
2.cc
4cc
=131
*k[b-e-a-d-]
2f}
2r
=132
2r
4r
{4c
=133
2.c
4c
=134
qg
4f
4f}
4r
{4f
=135
2f
4.g
8g
=136
2a-}
4r
{4a-
=137
2a-
2b-
=138
qdd-
4cc
4cc}
4r
{4cc
=139
2cc
4.ff
8cc
=140
2dd-}
2r
!! rest t0 measure 142
=142
2r
4r
{4b-
=143
2.b-
4g-
=144
4.cc-
8a-
4f
4a-
=145
4g-}
4r
2r
=146
4r
16r
{16g-
16g-
16a-
4b-
8a-
8g-
=147
4f
8r
8Bn
4c}
4r
==
*-
